app/images/icons/icons8-google-docs.svg

<svg height="48" viewBox="0 0 48 48" width="48" xmlns="http://www.w3.org/2000/svg"><path d="m37 45h-26c-1.657 0-3-1.343-3-3v-36c0-1.657 1.343-3 3-3h19l10 10v29c0 1.657-1.343 3-3 3z" fill="#2196f3"/><path d="m40 13h-10v-10z" fill="#bbdefb"/><path d="m30 13 10 10v-10z" fill="#1565c0"/><path d="m15 23h18v2h-18zm0 4h18v2h-18zm0 4h18v2h-18zm0 4h10v2h-10z" fill="#e3f2fd"/></svg>

<svg xmlns="http://www.w3.org/2000/svg" viewBox="0 0 48 48" width="48px" height="48px"><path fill="#2196f3" d="M37,45H11c-1.657,0-3-1.343-3-3V6c0-1.657,1.343-3,3-3h19l10,10v29C40,43.657,38.657,45,37,45z"/><path fill="#bbdefb" d="M40 13L30 13 30 3z"/><path fill="#1565c0" d="M30 13L40 23 40 13z"/><path fill="#e3f2fd" d="M15 23H33V25H15zM15 27H33V29H15zM15 31H33V33H15zM15 35H25V37H15z"/></svg>
